ui/StatusQ/src/assets/img/icons/tiny/locked.svg

<svg fill="none" height="17" viewBox="0 0 16 17" width="16" xmlns="http://www.w3.org/2000/svg"><path clip-rule="evenodd" d="m5 8.5v-1.74359c0-1.78315 1.32593-3.25641 3-3.25641s3 1.47326 3 3.25641v1.74359h.5c.8284 0 1.5.67157 1.5 1.5v3c0 .8284-.6716 1.5-1.5 1.5h-7c-.82843 0-1.5-.6716-1.5-1.5v-3c0-.82843.67157-1.5 1.5-1.5zm1.38452.00003h3.23077v-1.74359c0-1.04908-.74045-1.8718-1.61538-1.8718-.87494 0-1.61539.82272-1.61539 1.8718z" fill="#000" fill-rule="evenodd"/></svg>

<svg width="16" height="17" viewBox="0 0 16 17" fill="none" xmlns="http://www.w3.org/2000/svg">
<path fill-rule="evenodd" clip-rule="evenodd" d="M5 8.5V6.75641C5 4.97326 6.32593 3.5 8 3.5C9.67407 3.5 11 4.97326 11 6.75641V8.5H11.5C12.3284 8.5 13 9.17157 13 10V13C13 13.8284 12.3284 14.5 11.5 14.5H4.5C3.67157 14.5 3 13.8284 3 13V10C3 9.17157 3.67157 8.5 4.5 8.5H5ZM6.38452 8.50003H9.61529V6.75644C9.61529 5.70736 8.87484 4.88464 7.99991 4.88464C7.12497 4.88464 6.38452 5.70736 6.38452 6.75644V8.50003Z" fill="black"/>
</svg>
